images/logos/zopa-w.svg

<svg fill="none" height="30" viewBox="0 0 165 30" width="165" xmlns="http://www.w3.org/2000/svg"><path clip-rule="evenodd" d="m60.8551 0c9.1829 0 15.7403 6.05284 15.9464 14.7112 0 4.135-1.5867 7.9153-4.4674 10.644-2.9133 2.7596-6.9906 4.2797-11.479 4.2797-4.4888 0-8.5654-1.5201-11.479-4.2797-2.8808-2.7287-4.467-6.509-4.467-10.644 0-4.1196 1.5854-7.86138 4.4642-10.5356 2.8998-2.69288 6.9771-4.1756 11.4818-4.1756zm45.4979.726658c3.538 0 6.448.974172 8.416 2.817642 1.95 1.82638 2.981 4.51291 2.981 7.7688 0 6.6946-4.251 10.8871-11.118 10.9977l-.279.0023h-4.923v6.5947h-8.5121v-28.181142zm-77.4278-.00004v1.012312c0 5.33135-5.4392 10.57087-9.4104 14.39647-1.4209 1.3691-2.6609 2.5633-3.4989 3.5912l-.1733.2177-.4349.5598 13.3978-.004-.0083 8.3771h-28.7972v-1.0123c0-5.2889 5.00327-10.1129 9.02356-13.9893 1.63794-1.5801 3.06494-2.9558 3.86704-4.11072l.1279-.19043.3468-.53556-12.436229-.00159v-8.310682zm124.3678-.110369 10.918 28.190251h-8.889l-1.753-4.5252h-11.886l-1.753 4.5252h-8.888l10.918-28.190251zm-92.4379 7.402021c-1.8372 0-3.5482.70242-4.819 1.97696-1.2553 1.25947-1.9469 2.93447-1.9469 4.71597 0 1.7814.6916 3.4568 1.9469 4.7159 1.2708 1.2749 2.9818 1.9769 4.819 1.9769 1.7765 0 3.4574-.6746 4.7333-1.899 1.3104-1.2583 2.0326-2.9607 2.0326-4.7938 0-1.7815-.6917-3.4565-1.9474-4.71597-1.2707-1.27454-2.9818-1.97696-4.8185-1.97696zm86.7709.917-3.392 8.75843h6.784zm-41.267-.92614h-4.929v7.24827h4.929c2.085 0 3.541-1.5133 3.541-3.6805 0-2.13432-1.423-3.56777-3.541-3.56777z" fill="#fff" fill-rule="evenodd"/></svg>

<svg width="165" height="30" viewBox="0 0 165 30" fill="none" xmlns="http://www.w3.org/2000/svg">
<path fill-rule="evenodd" clip-rule="evenodd" d="M60.8551 0C70.038 0 76.5954 6.05284 76.8015 14.7112C76.8015 18.8462 75.2148 22.6265 72.3341 25.3552C69.4208 28.1148 65.3435 29.6349 60.8551 29.6349C56.3663 29.6349 52.2897 28.1148 49.3761 25.3552C46.4953 22.6265 44.9091 18.8462 44.9091 14.7112C44.9091 10.5916 46.4945 6.84982 49.3733 4.1756C52.2731 1.48272 56.3504 0 60.8551 0ZM106.353 0.726658C109.891 0.726658 112.801 1.70083 114.769 3.5443C116.719 5.37068 117.75 8.05721 117.75 11.3131C117.75 18.0077 113.499 22.2002 106.632 22.3108L106.353 22.3131H101.43V28.9078H92.9179V0.726658H106.353ZM28.9252 0.726618V1.73893C28.9252 7.07028 23.486 12.3098 19.5148 16.1354C18.0939 17.5045 16.8539 18.6987 16.0159 19.7266L15.8426 19.9443L15.4077 20.5041L28.8055 20.5001L28.7972 28.8772H0V27.8649C0 22.576 5.00327 17.752 9.02356 13.8756C10.6615 12.2955 12.0885 10.9198 12.8906 9.76488L13.0185 9.57445L13.3653 9.03889L0.929071 9.0373V0.726618H28.9252ZM153.293 0.616249L164.211 28.8065H155.322L153.569 24.2813H141.683L139.93 28.8065H131.042L141.96 0.616249H153.293ZM60.8551 8.01827C59.0179 8.01827 57.3069 8.72069 56.0361 9.99523C54.7808 11.2547 54.0892 12.9297 54.0892 14.7112C54.0892 16.4926 54.7808 18.168 56.0361 19.4271C57.3069 20.702 59.0179 21.404 60.8551 21.404C62.6316 21.404 64.3125 20.7294 65.5884 19.505C66.8988 18.2467 67.621 16.5443 67.621 14.7112C67.621 12.9297 66.9293 11.2547 65.6736 9.99523C64.4029 8.72069 62.6918 8.01827 60.8551 8.01827ZM147.626 8.93527L144.234 17.6937H151.018L147.626 8.93527ZM106.359 8.00913H101.43V15.2574H106.359C108.444 15.2574 109.9 13.7441 109.9 11.5769C109.9 9.44258 108.477 8.00913 106.359 8.00913Z" fill="white"/>
</svg>
